images/heart9.svg

<svg width="222" height="199" viewBox="0 0 222 199" fill="none" xmlns="http://www.w3.org/2000/svg">
<path d="M19.8168 130.811L36.7854 127.042V76.2585H55.1744V68.7278H0.00244141L1.88522 76.2585H19.8168V130.811Z" fill="#1F305E"/>
<path fill-rule="evenodd" clip-rule="evenodd" d="M110.985 68.7379C106.895 79.4939 102.916 90.3747 97.7774 100.078C93.2982 89.7166 89.2455 78.9236 84.5856 68.7379H66.4522V128.922H76.0852V89.0296L93.7185 128.279L110.98 89.8913V90.7006C110.985 90.6926 110.985 90.6845 110.985 90.674V128.921H127.959V68.7373L110.985 68.7379Z" fill="#1F305E"/>
<path d="M221.8 51.7504H199.108C203.145 35.4908 205.289 18.4799 205.289 0.977051L191.065 6.65228C188.469 98.1707 123.155 174.041 36.4607 193.031L34.6578 198.505C73.0363 190.691 107.452 172.025 134.565 145.858H151.049L172.756 114.812L194.442 145.858H221.8L185.66 98.8281L221.8 51.7504Z" fill="#1F305E"/>
<path d="M166.829 83.6566L155.59 68.7278H136.734L159.212 97.9613C162.137 93.6564 164.931 88.5343 166.829 83.6566Z" fill="#1F305E"/>
</svg>

<svg width="222" height="199" fill="none" xmlns="http://www.w3.org/2000/svg"><path d="m19.817 130.811 16.968-3.769V76.258h18.39v-7.53H.001l1.883 7.53h17.932v54.553Z" fill="#1F305E"/><path fill-rule="evenodd" clip-rule="evenodd" d="M110.985 68.738c-4.09 10.756-8.069 21.637-13.208 31.34-4.479-10.361-8.531-21.154-13.191-31.34H66.452v60.184h9.633V89.03l17.634 39.249 17.261-38.388v.81c.005-.008.005-.016.005-.027v38.247h16.974V68.737h-16.974Z" fill="#1F305E"/><path d="M221.8 51.75h-22.692c4.037-16.26 6.181-33.27 6.181-50.773l-14.224 5.675c-2.596 91.519-67.91 167.389-154.604 186.379l-1.803 5.474c38.378-7.814 72.794-26.48 99.907-52.647h16.484l21.707-31.046 21.686 31.046H221.8l-36.14-47.03L221.8 51.75Z" fill="#1F305E"/><path d="m166.829 83.657-11.239-14.93h-18.856l22.478 29.234c2.925-4.305 5.719-9.427 7.617-14.304Z" fill="#1F305E"/></svg>
